src/assets/outline/BoxRemove.svg

<svg width="24" height="24" viewBox="0 0 24 24"  xmlns="http://www.w3.org/2000/svg">
<path d="M11.9998 13.2999C11.8698 13.2999 11.7398 13.2699 11.6198 13.1999L2.78985 8.0899C2.42985 7.8799 2.30983 7.41987 2.51983 7.05987C2.72983 6.69987 3.18985 6.57985 3.53985 6.78985L11.9898 11.6799L20.3899 6.81988C20.7499 6.60988 21.2098 6.7399 21.4098 7.0899C21.6198 7.4499 21.4899 7.90987 21.1399 8.11987L12.3698 13.1999C12.2598 13.2599 12.1298 13.2999 11.9998 13.2999Z" />
<path d="M12 22.36C11.59 22.36 11.25 22.02 11.25 21.61V12.54C11.25 12.13 11.59 11.79 12 11.79C12.41 11.79 12.75 12.13 12.75 12.54V21.61C12.75 22.02 12.41 22.36 12 22.36Z" />
<path d="M11.9999 22.7499C11.1199 22.7499 10.2399 22.5599 9.55988 22.1699L4.21988 19.2099C2.76988 18.4099 1.62988 16.4799 1.62988 14.8199V9.1599C1.62988 7.4999 2.76988 5.57994 4.21988 4.76994L9.55988 1.80992C10.9199 1.03992 13.0599 1.03992 14.4299 1.80992L19.7699 4.76994C21.2199 5.56994 22.3599 7.4999 22.3599 9.1599V14.8199C22.3599 14.9199 22.3599 14.9999 22.3399 15.0999C22.2899 15.3599 22.0999 15.5799 21.8499 15.6599C21.5999 15.7499 21.3199 15.6899 21.1099 15.5199C19.9599 14.5199 18.1799 14.4799 16.9699 15.4499C16.1999 16.0599 15.7499 16.9899 15.7499 17.9799C15.7499 18.5699 15.9099 19.1499 16.2199 19.6499C16.2999 19.7899 16.3799 19.8999 16.4699 20.0099C16.6199 20.1799 16.6799 20.4099 16.6399 20.6299C16.5999 20.8499 16.4599 21.0399 16.2599 21.1499L14.4299 22.1599C13.7499 22.5599 12.8799 22.7499 11.9999 22.7499ZM11.9999 2.74992C11.3799 2.74992 10.7499 2.87993 10.2999 3.12993L4.95987 6.08995C3.98987 6.61995 3.14987 8.0599 3.14987 9.1599V14.8199C3.14987 15.9199 3.99987 17.3599 4.95987 17.8899L10.2999 20.8499C11.2099 21.3599 12.7999 21.3599 13.7099 20.8499L14.8299 20.2299C14.4599 19.5599 14.2599 18.7799 14.2599 17.9799C14.2599 16.5199 14.9099 15.1699 16.0399 14.2699C17.3999 13.1799 19.3499 12.9499 20.8699 13.5999V9.13994C20.8699 8.03994 20.0199 6.59993 19.0599 6.06993L13.7199 3.10991C13.2499 2.87991 12.6199 2.74992 11.9999 2.74992Z" />
<path d="M19 22.75C17.34 22.75 15.78 21.87 14.94 20.44C14.49 19.72 14.25 18.87 14.25 18C14.25 16.54 14.9 15.19 16.03 14.29C16.87 13.62 17.93 13.25 19 13.25C21.62 13.25 23.75 15.38 23.75 18C23.75 18.87 23.51 19.72 23.06 20.45C22.82 20.87 22.49 21.25 22.11 21.57C21.28 22.33 20.17 22.75 19 22.75ZM19 14.75C18.26 14.75 17.56 15 16.97 15.47C16.2 16.08 15.75 17.01 15.75 18C15.75 18.59 15.91 19.17 16.22 19.67C16.81 20.67 17.85 21.25 19 21.25C19.79 21.25 20.55 20.96 21.13 20.44C21.39 20.22 21.61 19.96 21.77 19.68C22.09 19.17 22.25 18.59 22.25 18C22.25 16.21 20.79 14.75 19 14.75Z" />
<path d="M20.0699 19.7901C19.8799 19.7901 19.6899 19.7201 19.5399 19.5701L17.4299 17.4601C17.1399 17.1701 17.1399 16.6901 17.4299 16.4001C17.7199 16.1101 18.1999 16.1101 18.4899 16.4001L20.5999 18.5101C20.8899 18.8001 20.8899 19.2801 20.5999 19.5701C20.4499 19.7201 20.2599 19.7901 20.0699 19.7901Z" />
<path d="M17.9301 19.8199C17.7401 19.8199 17.5501 19.7499 17.4001 19.5999C17.1101 19.3099 17.1101 18.8299 17.4001 18.5399L19.5101 16.4299C19.8001 16.1399 20.2801 16.1399 20.5701 16.4299C20.8601 16.7199 20.8601 17.1999 20.5701 17.4899L18.4601 19.5999C18.3101 19.7499 18.1201 19.8199 17.9301 19.8199Z" />
</svg>

<?xml version="1.0" encoding="UTF-8"?>
<svg width="24" height="24" viewBox="0 0 24 24" xmlns="http://www.w3.org/2000/svg">
 <path d="m12 13.3c-0.13 0-0.26-0.03-0.38-0.1l-8.83-5.11c-0.36-0.21-0.48002-0.67003-0.27002-1.03s0.67002-0.48002 1.02-0.27002l8.45 4.89 8.4001-4.86c0.36-0.21 0.8199-0.07998 1.0199 0.27002 0.21 0.36 0.0801 0.81997-0.2699 1.03l-8.7701 5.08c-0.11 0.06-0.24 0.1-0.37 0.1z"/>
 <path d="m12 22.36c-0.41 0-0.75-0.34-0.75-0.75v-9.07c0-0.41 0.34-0.75 0.75-0.75s0.75 0.34 0.75 0.75v9.07c0 0.41-0.34 0.75-0.75 0.75z"/>
 <path d="m12 22.75c-0.88 0-1.76-0.19-2.44-0.58l-5.34-2.96c-1.45-0.8-2.59-2.73-2.59-4.39v-5.66c0-1.66 1.14-3.58 2.59-4.39l5.34-2.96c1.36-0.77 3.5-0.77 4.87 0l5.34 2.96c1.45 0.8 2.59 2.73 2.59 4.39v5.66c0 0.1 0 0.18-0.02 0.28-0.05 0.26-0.24 0.48-0.49 0.56-0.25 0.09-0.53 0.03-0.74-0.14-1.15-1-2.93-1.04-4.14-0.07-0.77 0.61-1.22 1.54-1.22 2.53 0 0.59 0.16 1.17 0.47 1.67 0.08 0.14 0.16 0.25 0.25 0.36 0.15 0.17 0.21 0.4 0.17 0.62s-0.18 0.41-0.38 0.52l-1.83 1.01c-0.68 0.4-1.55 0.59-2.43 0.59zm0-20c-0.62 0-1.25 0.13001-1.7 0.38001l-5.34 2.96c-0.97 0.53-1.81 1.97-1.81 3.07v5.66c0 1.1 0.85 2.54 1.81 3.07l5.34 2.96c0.91 0.51 2.5 0.51 3.41 0l1.12-0.62c-0.37-0.67-0.57-1.45-0.57-2.25 0-1.46 0.65-2.81 1.78-3.71 1.36-1.09 3.31-1.32 4.83-0.67v-4.46c0-1.1-0.85-2.54-1.81-3.07l-5.34-2.96c-0.47-0.23-1.1-0.35999-1.72-0.35999z"/>
 <path d="m19 22.75c-1.66 0-3.22-0.88-4.06-2.31-0.45-0.72-0.69-1.57-0.69-2.44 0-1.46 0.65-2.81 1.78-3.71 0.84-0.67 1.9-1.04 2.97-1.04 2.62 0 4.75 2.13 4.75 4.75 0 0.87-0.24 1.72-0.69 2.45-0.24 0.42-0.57 0.8-0.95 1.12-0.83 0.76-1.94 1.18-3.11 1.18zm0-8c-0.74 0-1.44 0.25-2.03 0.72-0.77 0.61-1.22 1.54-1.22 2.53 0 0.59 0.16 1.17 0.47 1.67 0.59 1 1.63 1.58 2.78 1.58 0.79 0 1.55-0.29 2.13-0.81 0.26-0.22 0.48-0.48 0.64-0.76 0.32-0.51 0.48-1.09 0.48-1.68 0-1.79-1.46-3.25-3.25-3.25z"/>
 <path d="m20.07 19.79c-0.19 0-0.38-0.07-0.53-0.22l-2.11-2.11c-0.29-0.29-0.29-0.77 0-1.06s0.77-0.29 1.06 0l2.11 2.11c0.29 0.29 0.29 0.77 0 1.06-0.15 0.15-0.34 0.22-0.53 0.22z"/>
 <path d="m17.93 19.82c-0.19 0-0.38-0.07-0.53-0.22-0.29-0.29-0.29-0.77 0-1.06l2.11-2.11c0.29-0.29 0.77-0.29 1.06 0s0.29 0.77 0 1.06l-2.11 2.11c-0.15 0.15-0.34 0.22-0.53 0.22z"/>
</svg>
